X: 36
T:Schottis e. Per Gudmundsson
M:2/4
L:1/16
Q:75
C:e. Per Gudmundsson
S:
R:Schottis
O:Sweden
A:Dalarna
N:Upptecknad av Anders Lundgren
K:D
A |: {Bc}d2F2 A2BA | G2C2 E2ef | gfed cBAG | FGAB A2A2 |\
{Bc}d2F2 A2BA | G2C2 E2ef | gfed cABc |1 dedc d2A2 :|2 dedc d4 ||
f2a2 f2a2 | g2b2 bagf | e2g2 e2g2 | f2a2 agfe | d2f2 B2d2 |\
B2g2 gfed | c2ec A2Bc | dedc d4 :||
